src/22/panel/keybase-update.svg

<svg xmlns="http://www.w3.org/2000/svg" width="22" height="22" version="1.1">
 <defs>
  <style id="current-color-scheme" type="text/css">
   .ColorScheme-Text { color:#d3dae3; } .ColorScheme-Highlight { color:#4285f4; }
  </style>
 </defs>
 <path style="fill:currentColor" class="ColorScheme-Text" d="M 9.3378906 3 C 9.2917506 3 8.9898905 3.5097587 8.703125 4.0722656 C 8.2833253 4.8957293 8.0823547 5.5282129 8.0136719 6.2597656 C 7.9967029 6.44054 8.0003426 6.6184414 8.0117188 6.7929688 C 8.0046385 6.8715927 8.00072 6.9503658 8 7.0292969 C 8 7.350909 8.06468 7.6552539 8.1601562 7.9453125 C 6.8950988 8.5095454 5.823752 9.4303821 5.0878906 10.589844 C 4.9068303 10.826602 4.7468155 11.073389 4.6308594 11.337891 C 4.4486475 11.753525 4.313504 12.183712 4.2109375 12.648438 C 4.1426895 12.924193 4.0852482 13.20267 4.0507812 13.490234 C 4.0477112 13.515834 4.0557914 13.521208 4.0683594 13.517578 C 4.0552044 13.628341 4.0375767 13.733607 4.0273438 13.849609 C 3.9945383 14.221494 3.9905989 14.374998 4.015625 14.375 L 8 10 L 6.96875 13.455078 C 6.97482 13.461178 7.1062876 13.407508 7.2617188 13.335938 C 8.2166789 12.896235 9.4068483 12.129473 10.458984 12.003906 C 10.821824 11.960606 12.080719 11.956444 12.458984 11.996094 C 12.832034 12.035183 13.188956 12.195526 13.556641 12.376953 A 5 5 0 0 1 17 11 A 5 5 0 0 1 17.140625 11.007812 C 17.124657 10.95573 17.099266 10.896318 17.054688 10.818359 C 16.958797 10.563556 16.816689 10.307994 16.603516 10.019531 C 15.812925 9.150762 14.885394 8.4287802 13.837891 7.9492188 C 13.934232 7.6579794 14 7.3524242 14 7.0292969 C 13.999974 6.9537899 13.997885 6.8780222 13.992188 6.8027344 C 13.994787 6.7274754 14.001947 6.6521806 13.998047 6.578125 C 13.944926 5.5609826 13.350328 4.8631388 12.453125 4.4042969 C 11.978118 4.1613714 11.251468 4.0478117 10.777344 4.046875 C 10.185851 4.045709 9.7363509 3.537145 9.4472656 3.1210938 C 9.4009907 3.0544931 9.3516794 2.9999994 9.3378906 3 z M 17 12 C 14.7909 12 13 13.7909 13 16 C 13 18.2091 14.7909 20 17 20 C 19.2091 20 21 18.2091 21 16 C 21 13.7909 19.2091 12 17 12 z M 12.355469 12.990234 C 12.213148 12.975324 10.678186 12.984094 10.578125 12.996094 C 9.9135234 13.075414 8.7491037 13.751739 7.6796875 14.244141 C 7.5909405 14.285001 7.5096359 14.321393 7.4355469 14.351562 C 7.3985019 14.366644 7.3668921 14.379364 7.3164062 14.396484 C 7.2911633 14.405084 7.2657062 14.414495 7.1992188 14.429688 C 7.1659748 14.437288 7.1266108 14.447525 7.0273438 14.453125 C 6.9777107 14.455925 6.7992596 14.441486 6.7988281 14.441406 C 6.7986124 14.441366 6.5782807 14.37507 6.578125 14.375 C 6.5779693 14.374934 6.2598605 14.160252 6.2597656 14.160156 A 1.0001 1.0001 0 0 1 5.9960938 13.6875 L 4.7558594 15.048828 A 1.0001 1.0001 0 0 1 4.0898438 15.373047 A 6.9999312 6.9999312 0 0 0 5.7929688 19 L 13.007812 19 A 5 5 0 0 1 12 16 A 5 5 0 0 1 12.863281 13.193359 C 12.650594 13.088004 12.470002 13.002236 12.355469 12.990234 z M 17 13 A 3 3 0 0 1 20 16 L 19 16 A 2 2 0 0 0 17 14 L 17 13 z M 8 15 A 1 1 0 0 1 9 16 A 1 1 0 0 1 8 17 A 1 1 0 0 1 7 16 A 1 1 0 0 1 8 15 z M 14 16 L 15 16 A 2 2 0 0 0 17 18 L 17 19 A 3 3 0 0 1 14 16 z"/>
</svg>

<svg xmlns="http://www.w3.org/2000/svg" width="22" height="22"><defs><style id="current-color-scheme" type="text/css"></style></defs><path d="M9.338 3c-.046 0-.348.51-.635 1.072-.42.824-.62 1.456-.69 2.188-.016.18-.013.358-.001.533A2.932 2.932 0 0 0 8 7.029c0 .322.065.626.16.916a7.027 7.027 0 0 0-3.072 2.645 3.671 3.671 0 0 0-.457.748 6.966 6.966 0 0 0-.42 1.31 6.922 6.922 0 0 0-.16.842c-.003.026.005.031.017.028-.013.11-.03.216-.04.332-.033.371-.037.525-.012.525L8 10l-1.031 3.455c.006.006.137-.047.293-.12.955-.439 2.145-1.206 3.197-1.331.363-.043 1.622-.048 2-.008.373.04.73.2 1.098.381A5 5 0 0 1 17 11a5 5 0 0 1 .14.008.927.927 0 0 0-.085-.19 3.278 3.278 0 0 0-.451-.798c-.791-.87-1.719-1.591-2.766-2.07a2.915 2.915 0 0 0 .154-1.147c.003-.076.01-.15.006-.225-.053-1.017-.648-1.715-1.545-2.174-.475-.243-1.202-.356-1.676-.357-.591-.001-1.04-.51-1.33-.926C9.401 3.054 9.352 3 9.337 3zM17 12a4 4 0 1 0 0 8 4 4 0 0 0 0-8zm-4.645.99a38.922 38.922 0 0 0-1.777.006c-.664.08-1.829.756-2.898 1.248-.09.041-.17.077-.244.108a1.895 1.895 0 0 1-.12.044c-.025.01-.05.018-.117.034-.033.007-.072.018-.172.023a3.152 3.152 0 0 1-.228-.012l-.22-.066-.32-.215a1 1 0 0 1-.263-.473l-1.24 1.362a1 1 0 0 1-.666.324A7 7 0 0 0 5.793 19h7.215A5 5 0 0 1 12 16a5 5 0 0 1 .863-2.807c-.212-.105-.393-.19-.508-.203zM17 13a3 3 0 0 1 3 3h-1a2 2 0 0 0-2-2v-1zm-9 2a1 1 0 0 1 1 1 1 1 0 0 1-1 1 1 1 0 0 1-1-1 1 1 0 0 1 1-1zm6 1h1a2 2 0 0 0 2 2v1a3 3 0 0 1-3-3z" fill="currentColor" color="#323232"/></svg>
